X:18437
T:Waltz,A. CJF.014
M:3/8
L:1/16
Q:45
C: 
S: C.J.Fox MS, 1829/33, Beverley,E.Yorks.
R:Waltz
O:England
A:East Yorkshire
B:Kidson Coll.Mitchell Lib.M1805
N:Reminiscent of the Copenhagen Waltz in its use of g<b etc.,but actually
N:a quite different tune. CGP,
Z:P J Headford 2000
K:G
d2|g<be<gf<a|g<b d2 gf|ed e2f2|gagdef|g<be<gf<a|gb d2 gf|
ed e2f2|g4:|!b2e2g2|d3cB2|dg b2 ag|fabd'c'ba|\
b2e2g2|d3cB|dg b2a2|g4:|!dB g2f2|ed c2B2|
cA a2g2|fe d2e2|gabc'd'2|gabc'd'2|g<be<gf<a|g4:|]


